X: 40251
T: Tiugainn Do Dh'Uibhist
R: waltz
M: 3/4
K: Gmajor
D2|G3AG2|(GB3)D2|(EG3)E2|D4D2|G3AG2|
B3AG2|B3AG2|A4Bc|d3ed2|B3GD2|
(EG3)E2|D4Bc|d4D2|(DB3)A2|G6|G6||

